X:2373
T:Mylecharaine's March 
C:Traditional
O:Isle of Man 
N:Dance tune. See also KV 247,294-5,302,403-4.
B:Kiaull Vannin #373 
M:3/4 
L:1/4 
Q:140 
K:D 
d/>c/|d A d/>c/|d A d/>c/|d A/>G/ F/>D/|E D e/>f/|g f e|d c d|e3 -|e2 c/>d/| 
e a g/>a/|f e d/>c/|d A/>G/ F/>D/|E>E F/>G/|A G/>F/ E/>D/|E d c|(d3|d2) ( 3A/B/c/)| 
d/>c/ d/>e/ f/>d/|e/>d/ e/>f/ g/>e/|d/>c/ d/>e/ f/>d/|e/>c/ A c/>d/| e a g/>a/|f e d/>c/|
d A/>G/ F/>D/|E>E F/>G/|A G/>F/ E/>D/|E d c|d3 -|d2|| 
W:Second half of the tune is from arrangements in the Clague manuscript.

